pp/file-loop.svg

<svg viewBox="0 0 20 20" fill="none" xmlns="http://www.w3.org/2000/svg" height="1em" width="1em">
  <g clip-path="url(#a)">
    <path fill-rule="evenodd" clip-rule="evenodd" d="M5.00012 4C5.00012 2.61929 6.11941 1.5 7.50012 1.5H12.6001C12.8627 1.5 13.1147 1.60327 13.3018 1.78752L17.7018 6.12085C17.8927 6.30881 18.0001 6.56547 18.0001 6.83333V14C18.0001 15.3807 16.8808 16.5 15.5001 16.5H9.00012C8.44784 16.5 8.00012 16.0523 8.00012 15.5C8.00012 14.9477 8.44784 14.5 9.00012 14.5H15.5001C15.7763 14.5 16.0001 14.2761 16.0001 14V7.83333H13.6001C12.4956 7.83333 11.6001 6.9379 11.6001 5.83333V3.5H7.50012C7.22398 3.5 7.00012 3.72386 7.00012 4V5.5C7.00012 6.05228 6.55241 6.5 6.00012 6.5C5.44784 6.5 5.00012 6.05228 5.00012 5.5V4ZM13.6001 4.88839L14.5596 5.83333H13.6001V4.88839Z" fill="currentColor"/>
    <path fill-rule="evenodd" clip-rule="evenodd" d="M8.04893 8.67825C6.97953 8.10989 5.65186 8.51607 5.0835 9.58547C4.51514 10.6549 4.92131 11.9825 5.99071 12.5509C7.06012 13.1193 8.38779 12.7131 8.95614 11.6437C9.5245 10.5743 9.11833 9.24661 8.04893 8.67825ZM3.31743 8.64685C4.40418 6.60207 6.94277 5.82544 8.98755 6.91218C11.0323 7.99893 11.809 10.5375 10.7222 12.5823C9.7972 14.3228 7.82033 15.1445 5.99144 14.6803L4.3146 17.8354C4.05541 18.3231 3.44994 18.5083 2.96226 18.2491C2.47457 17.9899 2.28934 17.3845 2.54853 16.8968L4.22537 13.7417C2.81743 12.4855 2.39242 10.3873 3.31743 8.64685Z" fill="currentColor"/>
  </g>
  <defs>
    <clipPath id="a">
      <rect width="20" height="20" fill="white"/>
    </clipPath>
  </defs>
</svg>

<svg viewBox="0 0 20 20" fill="none" xmlns="http://www.w3.org/2000/svg" height="1em" width="1em">
  <g clip-path="url(#a)" fill-rule="evenodd" clip-rule="evenodd" fill="currentColor">
    <path d="M5 4a2.5 2.5 0 0 1 2.5-2.5h5.1a1 1 0 0 1 .702.288l4.4 4.333a1 1 0 0 1 .298.712V14a2.5 2.5 0 0 1-2.5 2.5H9a1 1 0 1 1 0-2h6.5a.5.5 0 0 0 .5-.5V7.833h-2.4a2 2 0 0 1-2-2V3.5H7.5A.5.5 0 0 0 7 4v1.5a1 1 0 1 1-2 0V4Zm8.6.888.96.945h-.96v-.945Z"/>
    <path d="M8.049 8.678a2.193 2.193 0 1 0-2.058 3.873 2.193 2.193 0 0 0 2.058-3.873Zm-4.732-.031a4.193 4.193 0 1 1 2.674 6.033l-1.676 3.155a1 1 0 0 1-1.766-.938l1.676-3.155a4.195 4.195 0 0 1-.908-5.095Z"/>
  </g>
  <defs>
    <clipPath id="a">
      <path fill="#fff" d="M0 0h20v20H0z"/>
    </clipPath>
  </defs>
</svg>
